X: 394
T: Shishi xiangnian gege ni
L: 1/16
M: 2/4
K: G
d2> B2 A2 d2 [I:setbarnb 1]| 
G2 F ED4 | 
d2> B2 A2 B d | 
A8 | 
d2> B2 A2 d2 | 
G2 F ED4 | 
G2 E2 A B G E | 
D8 | 
E2 G2G4 | 
A A A A E2 A2 | 
A B G ED4 | 
A B A G E2 G2 | 
A2 B ED4 | 
A2 B2d4 | 
e2 g2 e2 d2 | 
G A E D G A E D | 
G2 A2 E2 D2 | 
B2 A2 E2 D2 | 
G2 A2 E2 D2 | 
G2 A2 E2 D2 | 
d d d d d d d d | 
G2 A2 d d d d | 
d2 G A d2 G E | 
D8 |]

@@@ Tune index: 9268
